X:1
T:Title
%%score ( 1 2 3 ) ( 4 5 )
L:1/8
M:4/4
K:A
V:1 treble nm="Bright Piano"
V:2 treble 
V:3 treble 
V:4 bass nm="Bright Piano"
V:5 bass 
V:1
 z4 z2[Q:1/4=100] [CE][CE] | [Cc]2 [CA]2 [DB][CA]GF | [DF]2 [CE]2 z2 [CA][EA] | %3
 [DF]3 [DG] [FA]2 [DF]2 | E4 z2 [CE][CE] | [Cc]2 [CA]2 [DB][CA]GF | FE [CA]2 z2 [EG][^DF] | %7
 [EB]2 [EG]2 [^DF]2 [DB]2 | E4 z2 EF | [EG]3 [EA] [EB]2 [EA]2 | A4 G2 [EG][EA] | %11
 [GB]3 [Ac] [Gd]2 [Ac]2 | [GB]6 EE | [Ec]4 [^Ec]3 [EB] | [^EB]2 [FA]2 [Fd]2 cB | z4 z2 .F2 | %16
 [CA]2 z2 [FA]2 [DF]2 | [CE]4 [CA]4 | c6 z2 |[M:3/4] [CA]4 z2 |] %20
V:2
 x8 | z4 z2 D2 | x8 | x8 | x8 | z4 z2 D2 | D2 z2 z4 | x8 | x8 | x8 | E6 z2 | x8 | x8 | x8 | %14
 z4 z2 F2 | [EA]2 [CA]2 [DG]2 D-[DG] | x8 | x8 | E4 z2 B2 |[M:3/4] x6 |] %20
V:3
 x8 | x8 | x8 | x8 | x8 | x8 | x8 | x8 | x8 | x8 | x8 | x8 | x8 | x8 | x8 | x8 | x8 | x8 | z4 D4 | %19
[M:3/4] x6 |] %20
V:4
 z4 z2 [A,,E,][A,,E,] | [A,,E,]2 [A,,E,]2 G,A,B,A, | [E,G,]2 [A,,A,]2 z2 [A,,A,][C,A,] | %3
 [D,A,]3 [D,A,] [D,A,]2 [D,A,]2 | [A,,A,]4 z2 [A,,E,][A,,E,] | [A,,E,]2 [A,,E,]2 G,A,B,A, | %6
 [E,G,]2 [A,,A,]2 z2 [B,,B,][B,,A,] | [E,G,]2 [E,B,]2 [B,,A,]2 [B,,A,]2 | [E,G,]4 z2 [E,G,][E,A,] | %9
 [E,B,]3 [E,C] [E,D]2 [E,C]2 | C4 B,2 [E,B,][E,C] | [E,D]3 [E,C] [E,B,]2 [E,C]2 | [E,D]6 E,E, | %13
 [A,,A,]4 [C,G,]3 [C,G,] | [D,G,]2 [C,A,]2 [D,B,]2 [D,D]2 | [E,C]2 [E,A,]2 [E,B,]2 [E,B,]2 | %16
 [F,A,]2 z2 [D,A,]2 [D,A,]2 | [E,A,]4 [E,A,]4 | [E,A,]4 [E,G,]4 |[M:3/4] [A,,A,]4 z2 |] %20
V:5
 x8 | z4 E,2 E,2 | x8 | x8 | x8 | z4 E,2 E,2 | x8 | x8 | x8 | x8 | E,6 z2 | x8 | x8 | x8 | x8 | %15
 x8 | x8 | x8 | x8 |[M:3/4] x6 |] %20

